svg/media/fast_forward_fill.svg

<?xml version="1.0" encoding="UTF-8"?>
<svg width="24px" height="24px" viewBox="0 0 24 24" version="1.1" xmlns="http://www.w3.org/2000/svg" xmlns:xlink="http://www.w3.org/1999/xlink">
    <title>fast_forward_fill</title>
    <g id="页面-1" stroke="none" stroke-width="1" fill="none" fill-rule="evenodd">
        <g id="Media" transform="translate(-288.000000, -48.000000)">
            <g id="fast_forward_fill" transform="translate(288.000000, 48.000000)">
                 <path d="M24,0 L24,24 L0,24 L0,0 L24,0 Z M12.5934901,23.257841 L12.5819402,23.2595131 L12.5108777,23.2950439 L12.4918791,23.2987469 L12.4918791,23.2987469 L12.4767152,23.2950439 L12.4056548,23.2595131 C12.3958229,23.2563662 12.3870493,23.2590235 12.3821421,23.2649074 L12.3780323,23.275831 L12.360941,23.7031097 L12.3658947,23.7234994 L12.3769048,23.7357139 L12.4804777,23.8096931 L12.4953491,23.8136134 L12.4953491,23.8136134 L12.5071152,23.8096931 L12.6106902,23.7357139 L12.6232938,23.7196733 L12.6232938,23.7196733 L12.6266527,23.7031097 L12.609561,23.275831 C12.6075724,23.2657013 12.6010112,23.2592993 12.5934901,23.257841 L12.5934901,23.257841 Z M12.8583906,23.1452862 L12.8445485,23.1473072 L12.6598443,23.2396597 L12.6498822,23.2499052 L12.6498822,23.2499052 L12.6471943,23.2611114 L12.6650943,23.6906389 L12.6699349,23.7034178 L12.6699349,23.7034178 L12.678386,23.7104931 L12.8793402,23.8032389 C12.8914285,23.8068999 12.9022333,23.8029875 12.9078286,23.7952264 L12.9118235,23.7811639 L12.8776777,23.1665331 C12.8752882,23.1545897 12.8674102,23.1470016 12.8583906,23.1452862 L12.8583906,23.1452862 Z M12.1430473,23.1473072 C12.1332178,23.1423925 12.1221763,23.1452606 12.1156365,23.1525954 L12.1099173,23.1665331 L12.0757714,23.7811639 C12.0751323,23.7926639 12.0828099,23.8018602 12.0926481,23.8045676 L12.108256,23.8032389 L12.3092106,23.7104931 L12.3186497,23.7024347 L12.3186497,23.7024347 L12.3225043,23.6906389 L12.340401,23.2611114 L12.337245,23.2485176 L12.337245,23.2485176 L12.3277531,23.2396597 L12.1430473,23.1473072 Z" id="MingCute" fill-rule="nonzero"></path>
                <path d="M13.2124,5.6272 L13.5675434,5.79460548 L13.5675434,5.79460548 L14.0257679,6.01930834 L14.0257679,6.01930834 L14.5788362,6.30184105 L14.5788362,6.30184105 L14.9961715,6.52258684 L14.9961715,6.52258684 L15.6890074,6.90268593 L15.6890074,6.90268593 L16.1918941,7.188969 L16.1918941,7.188969 L16.72473,7.50174309 L16.72473,7.50174309 L17.2850747,7.84116596 C17.3806222,7.89996594 17.4772143,7.95988286 17.5748,8.02092 L18.149981,8.38651178 L18.149981,8.38651178 L18.6897961,8.74049042 L18.6897961,8.74049042 L19.1931108,9.08040087 L19.1931108,9.08040087 L19.6587905,9.4037881 L19.6587905,9.4037881 L20.2842626,9.85251749 L20.2842626,9.85251749 L20.6508911,10.1238558 L20.6508911,10.1238558 L21.2581957,10.5887299 L21.2581957,10.5887299 L21.69,10.9335 L21.69,10.9335 C22.334,11.4589 22.3171,12.5046 21.6475,13.0513 L21.3401889,13.2982446 L21.3401889,13.2982446 L20.7781333,13.7330333 L20.7781333,13.7330333 L20.0480669,14.2722466 L20.0480669,14.2722466 L19.6220937,14.5754963 L19.6220937,14.5754963 L19.1565948,14.8982329 L19.1565948,14.8982329 L18.6523957,15.23825 C18.5651834,15.296237 18.476393,15.3548521 18.3860417,15.4140493 L17.8253406,15.77585 C17.7288145,15.8371918 17.6307619,15.8990238 17.5312,15.9613 L16.9732481,16.3050387 L16.9732481,16.3050387 L16.4414739,16.6229368 L16.4414739,16.6229368 L15.9377727,16.9152811 L15.9377727,16.9152811 L15.4640394,17.1823582 L15.4640394,17.1823582 L15.0221692,17.4244548 L15.0221692,17.4244548 L14.4232528,17.7413885 L14.4232528,17.7413885 L14.0693316,17.9222883 L14.0693316,17.9222883 L13.3570941,18.2702654 L13.3570941,18.2702654 L13.1462,18.3685 L13.1462,18.3685 C12.3751,18.7229 11.5311,18.2172 11.4323,17.351 L11.3568635,16.6105524 L11.3568635,16.6105524 L11.289339,15.7765123 L11.289339,15.7765123 L11.2568467,15.2846438 L11.2568467,15.2846438 L11.2269764,14.7456459 L11.2269764,14.7456459 L11.2010596,14.1615957 L11.2010596,14.1615957 L10.7054409,14.5168877 C10.6180433,14.578602 10.5282688,14.6415125 10.436148,14.7055393 L9.85551414,15.1024545 L9.85551414,15.1024545 L9.22004134,15.5223208 L9.22004134,15.5223208 L8.5312,15.9613 L8.5312,15.9613 L7.97325528,16.3050387 L7.97325528,16.3050387 L7.18601011,16.7722853 L7.18601011,16.7722853 L6.46405671,17.1823582 L6.46405671,17.1823582 L6.02218625,17.4244548 L6.02218625,17.4244548 L5.42326618,17.7413885 L5.42326618,17.7413885 L5.06934032,17.9222883 L5.06934032,17.9222883 L4.35708422,18.2702654 L4.35708422,18.2702654 L4.14618,18.3685 L4.14618,18.3685 C3.37509,18.7229 2.53112,18.2172 2.43232,17.351 L2.37794919,16.8342802 L2.37794919,16.8342802 L2.31588434,16.1290179 L2.31588434,16.1290179 L2.25465158,15.2485065 L2.25465158,15.2485065 L2.21440209,14.4811125 L2.21440209,14.4811125 L2.19226983,13.9216748 L2.19226983,13.9216748 L2.16878695,13.0149099 L2.16878695,13.0149099 L2.16116296,12.367751 L2.16116296,12.367751 L2.16116296,11.6853512 L2.16116296,11.6853512 L2.16934193,11.0180374 L2.16934193,11.0180374 L2.18444268,10.3868936 L2.18444268,10.3868936 L2.21762861,9.51199943 L2.21762861,9.51199943 L2.259935,8.72878125 L2.259935,8.72878125 L2.32368395,7.83777225 L2.32368395,7.83777225 L2.37186576,7.29248309 L2.37186576,7.29248309 L2.41596319,6.85945712 C2.42048928,6.81780872 2.42486636,6.77835364 2.42907,6.74113 C2.53188,5.83063 3.43486,5.26809 4.21243,5.6272 L4.56754924,5.79460548 L4.56754924,5.79460548 L5.02575985,6.01930834 L5.02575985,6.01930834 L5.57882259,6.30184105 L5.57882259,6.30184105 L5.99615795,6.52258684 L5.99615795,6.52258684 L6.44954667,6.76942921 L6.44954667,6.76942921 L6.93654749,7.04252595 C7.02037968,7.0902387 7.10551065,7.13905195 7.19188955,7.188969 L7.72473117,7.50174309 L7.72473117,7.50174309 L8.28508174,7.84116596 C8.38063029,7.89996594 8.47722333,7.95988286 8.57481,8.02092 C9.04015109,8.31197669 9.47381847,8.5945594 9.87333844,8.8633156 L10.4466986,9.25541095 L10.4466986,9.25541095 L10.9669824,9.62275215 C11.0491703,9.68168982 11.1290693,9.73942879 11.2066409,9.79588545 L11.2336867,9.20399025 L11.2336867,9.20399025 L11.2647551,8.66020854 L11.2647551,8.66020854 L11.3156918,7.93963176 L11.3156918,7.93963176 L11.3839966,7.16809396 L11.3839966,7.16809396 L11.4291,6.74113 L11.4291,6.74113 C11.5319,5.83063 12.4349,5.26809 13.2124,5.6272 Z" id="路径" fill="#09244B"></path>
            </g>
        </g>
    </g>
</svg>

<svg xmlns="http://www.w3.org/2000/svg" width="24" height="24"><g fill="none" fill-rule="evenodd"><path d="M24 0v24H0V0h24ZM12.593 23.258l-.011.002-.071.035-.02.004-.014-.004-.071-.035c-.01-.004-.019-.001-.024.005l-.004.01-.017.428.005.02.01.013.104.074.015.004.012-.004.104-.074.012-.016.004-.017-.017-.427c-.002-.01-.009-.017-.017-.018Zm.265-.113-.013.002-.185.093-.01.01-.003.011.018.43.005.012.008.007.201.093c.012.004.023 0 .029-.008l.004-.014-.034-.614c-.003-.012-.01-.02-.02-.022Zm-.715.002a.023.023 0 0 0-.027.006l-.006.014-.034.614c0 .012.007.02.017.024l.015-.002.201-.093.01-.008.004-.011.017-.43-.003-.012-.01-.01-.184-.092Z"/><path fill="#09244B" d="m13.212 5.627.356.168.458.224.553.283.417.22.693.38.503.287.533.313.56.34c.096.058.192.118.29.179l.575.366.54.353.503.34.466.324.625.449.367.27.607.466.432.345c.644.525.627 1.57-.043 2.117l-.307.247-.562.435-.73.54-.426.302-.465.323-.505.34a47.21 47.21 0 0 1-.266.176l-.56.362-.295.185-.558.344-.532.318-.503.292-.474.267-.442.242-.599.317-.354.181-.712.348-.21.099c-.772.354-1.616-.152-1.715-1.018l-.075-.74-.068-.834-.032-.492-.03-.54-.026-.583-.496.355-.269.189-.58.396-.636.42-.689.44-.558.343-.787.467-.722.41-.442.242-.599.317-.354.181-.712.348-.21.099c-.772.354-1.616-.152-1.715-1.018l-.054-.517-.062-.705-.061-.88-.04-.768-.023-.56-.023-.906-.008-.647v-.683l.008-.667.015-.631.034-.875.042-.783.064-.891.048-.546.044-.433.013-.118c.103-.91 1.006-1.473 1.783-1.114l.356.168.458.224.553.283.417.22.454.247.487.274.255.146.533.313.56.34a46.884 46.884 0 0 1 1.588 1.021l.574.392.52.368.24.173.027-.592.03-.544.052-.72.068-.772.045-.427c.103-.91 1.006-1.473 1.783-1.114Z"/></g></svg>
